X: 3
T: 2. SWEET ELLEN
B: Sam Bayard, "Hill Country Tunes" 1944 #2
S: Played by Irvin Yaugher Jr., Mt. Independence PA, Oct 19 1943.  Learned from his great-uncle.
R: reel
Z: 2010 John Chambers <jc:trillian.mit.edu>
M: C|
L: 1/8
K: D
A,2 |\
D2DE  F2ED | FAAF  A3A  | BABc dBAG | F2ED E2FE |
A,DDD F2ED | FAAF  A3A  | BABc dBAG | F2D2 D2 || de |
fa2b  afde | fede  fede | fa2b afde | fee2 e3e |
faab  afde |.fz ed B2A2 | BcdB AGED | F2D2 D2 |]

%%sep 2 1 500
%%sep 1 1 500

